build/img/logo-bikeshop.svg

<svg width="184" height="30" viewBox="0 0 184 30" fill="none" xmlns="http://www.w3.org/2000/svg">
<path fill-rule="evenodd" clip-rule="evenodd" d="M10.6246 10.4916C10.6246 10.8948 12.4638 11.6829 13.5888 11.6829C15.7494 11.6829 18.0886 8.78723 18.0886 5.70832C18.0886 2.77601 15.9815 0.705078 13.0531 0.705078C7.17829 0.705078 0 9.09879 0 15.8431C0 20.3698 3.24987 24.1818 7.10687 24.1818C9.84333 24.1818 12.8218 22.261 15.4187 19.0704C15.2438 19.7319 15.1448 20.2194 15.1448 20.4615C15.1448 21.5977 17.4304 22.679 18.0911 22.679C18.2875 22.679 18.4125 22.5874 18.4125 22.2941C18.4125 21.0113 20.9124 16.6311 23.2873 13.5705C22.3766 15.6232 21.4124 18.8853 21.4124 20.6814C21.4124 21.6161 23.198 22.679 25.0551 22.679C25.3457 22.679 26.791 20.729 28.2596 18.5616C28.3023 20.844 29.8382 22.679 31.6692 22.679C34.1334 22.679 36.7762 19.3252 37.4547 15.9164C37.9979 15.9164 38.5563 15.8098 39.0865 15.6263C37.4693 20.1849 35.656 26.1779 35.656 26.9492C35.656 27.7922 37.8702 29.295 38.9237 29.295C39.2273 29.295 39.4415 29.1484 39.4415 28.8735C39.4415 28.7086 39.388 28.6352 39.263 28.6352C39.138 28.6352 39.0666 28.507 39.0666 28.2504C39.0666 27.2974 40.0665 24.3284 41.4772 21.3595C41.87 21.9093 43.62 22.679 44.7092 22.679C47.5127 22.679 50.6733 17.5108 50.6733 12.6542C50.6733 11.9211 48.6733 10.3817 47.7805 10.3817C46.352 10.3817 43.9235 14.2303 42.1914 17.4925C43.0664 14.8718 44.2449 12.1227 44.6021 12.1227C44.6735 12.1227 44.7449 12.0311 44.7449 11.9395C44.7449 11.3896 42.5486 10.3817 41.4236 10.3817C41.1317 10.3817 40.4139 12.018 39.5801 14.2646C38.9999 14.6251 38.3118 14.8351 37.5976 14.8351C37.6154 14.6519 37.6154 14.4686 37.6154 14.2854V14.2853C37.6154 13.8455 37.5797 13.4423 37.5083 13.1124C37.544 13.1307 37.5976 13.149 37.6512 13.149C37.8297 13.149 38.0797 12.9291 38.0797 12.5626C38.0797 11.463 35.8298 10.1801 33.9549 10.1801C32.2891 10.1801 30.1071 12.6523 28.9889 15.3067C27.4147 17.6432 25.1013 20.9929 24.9301 20.9929C24.8944 20.9929 24.8765 20.883 24.8765 20.6997C24.8765 18.6104 27.2336 12.6909 27.93 12.6909C28.0371 12.6909 28.1621 12.5259 28.1621 12.3426C28.1621 11.5546 25.6265 10.3633 25.0551 10.3633C24.0194 10.3633 21.1445 14.0654 19.2875 17.3276C21.0374 12.4893 24.1444 5.50672 24.9301 5.50672C25.0373 5.50672 25.1265 5.39676 25.1265 5.26847C25.1265 4.68201 23.0909 3.67403 22.0195 3.67403C21.0098 3.67403 18.3556 10.1634 16.6562 15.1136C13.943 19.3924 10.2305 22.1292 6.85688 22.1292C4.37483 22.1292 2.9106 20.6814 2.9106 18.2073C2.9106 12.416 11.071 2.92263 16.1779 2.92263C16.1779 6.33143 13.2138 10.3084 11.0531 10.3084C10.7317 10.3084 10.6246 10.4 10.6246 10.4916ZM34.2406 13.5156C32.8656 14.9817 31.7228 17.7124 31.7228 19.7467C31.7228 20.8647 32.0621 21.1212 32.4728 21.1212C33.8299 21.1212 35.6691 18.2806 36.2941 15.7148C35.187 15.3483 34.3656 14.5052 34.2406 13.5156ZM36.4726 14.6335C36.4905 14.4502 36.4905 14.2853 36.4905 14.1204C36.4905 13.2773 36.2762 12.8741 36.0084 12.8741C35.7762 12.8741 35.5798 13.1124 35.5798 13.4972C35.5798 13.9921 35.9191 14.3953 36.4726 14.6335ZM41.6736 20.938C42.7271 18.8487 46.477 12.251 47.4591 11.5179C47.4591 16.3013 44.6021 20.773 41.6736 20.938ZM54.8863 17.4925C56.6183 14.2303 59.0468 10.3817 60.4753 10.3817C61.3681 10.3817 63.3681 11.9211 63.3681 12.6542C63.3681 17.5108 60.2075 22.679 57.404 22.679C56.3148 22.679 54.5648 21.9093 54.172 21.3595C52.7613 24.3284 51.7614 27.2974 51.7614 28.2504C51.7614 28.507 51.8328 28.6352 51.9578 28.6352C52.0828 28.6352 52.1364 28.7086 52.1364 28.8735C52.1364 29.1484 51.9221 29.295 51.6185 29.295C50.565 29.295 48.3508 27.7922 48.3508 26.9492C48.3508 25.6846 53.2256 10.3817 54.1184 10.3817C55.2434 10.3817 57.4397 11.3896 57.4397 11.9395C57.4397 12.0311 57.3683 12.1227 57.2969 12.1227C56.9397 12.1227 55.7612 14.8718 54.8863 17.4925ZM54.3684 20.938C55.422 18.8487 59.1718 12.251 60.1539 11.5179C60.1539 16.3013 57.2969 20.773 54.3684 20.938ZM73.5451 13.2407C73.5451 11.7562 71.7238 10.3633 70.1345 10.3633C67.2775 10.3633 63.7419 14.8534 63.7419 18.1523C63.7419 20.6997 65.8311 22.679 67.8132 22.679C69.6535 22.679 71.6231 20.9901 73.2646 19.0716C73.112 19.6544 73.0225 20.1022 73.0225 20.3332C73.0225 21.5794 75.5939 22.679 76.2546 22.679C76.451 22.679 76.576 22.5874 76.576 22.2941C76.576 21.0479 78.933 16.8694 81.2722 13.8271C81.0758 14.3769 80.9687 14.9634 80.9687 15.4949C80.9687 16.2646 83.2007 17.4925 84.6114 17.4925C85.2899 17.4925 89.3791 13.2773 89.3433 12.5809C89.3255 12.4526 89.1291 12.251 88.9148 12.251C88.6469 12.251 88.3434 12.5076 88.1291 12.7642C87.647 13.369 84.7721 16.2096 84.5221 16.2096C84.4864 16.2096 84.4685 16.1546 84.4685 16.008C84.4685 14.9634 85.3435 12.8375 85.9685 12.8375C86.1649 12.8375 86.3435 12.6176 86.3435 12.3976C86.3435 11.5729 83.8078 10.3817 83.2007 10.3817C82.1829 10.3817 79.4152 13.9554 77.5402 17.1626C78.4509 14.6518 79.6294 12.1411 79.9866 12.1411C80.0401 12.1411 80.1116 12.0494 80.1116 11.9395C80.1116 11.2614 77.7545 10.3817 76.9331 10.3817C76.4279 10.3817 75.2799 13.0322 74.3577 15.621C72.688 18.0071 70.1283 21.1212 68.3489 21.1212C67.5454 21.1212 67.0454 20.4798 67.0454 19.4168C67.0454 16.8877 69.831 13.4056 71.7773 13.1857C71.4559 15.4399 69.1703 16.9977 68.0096 16.9977C67.7775 16.9977 67.6525 17.0527 67.6525 17.126C67.6525 17.3642 68.706 17.8957 69.4203 17.8957C70.8131 17.8957 73.5451 15.7698 73.5451 13.2407ZM102.967 8.10545C102.967 8.40715 102.788 8.56687 102.663 8.56687C102.251 8.56687 101.194 10.2173 100.03 12.4711C105.672 12.0452 109.487 10.0576 109.487 7.36009C109.487 5.14175 106.89 3.68652 102.806 3.68652C96.7522 3.68652 91.325 6.88093 91.325 10.519C91.325 11.9742 92.1848 13.1278 93.3848 13.1278C93.8505 13.1278 94.1192 13.3052 94.1192 13.5004C94.1192 13.7312 93.761 13.9619 93.0087 13.9619C90.9847 13.9619 89.6414 12.2227 89.6414 9.89787C89.6414 5.05302 95.4626 0.705078 102.824 0.705078C108.377 0.705078 112.174 3.15412 112.174 6.77445C112.174 9.43645 110.114 11.5306 106.621 12.7551C108.699 13.4117 109.935 14.9024 109.935 17.0498C109.935 21.2913 105.153 25.4085 100.263 25.4085C98.6508 25.4085 96.985 24.8051 95.4447 23.7225C95.373 24.0775 95.3372 24.3792 95.3372 24.6276C95.3372 25.2133 95.1223 25.3907 94.7998 25.3907C93.8505 25.3907 92.3818 23.8823 92.3818 22.6223C92.3818 20.0667 98.5433 5.81613 100.048 5.81613C101.373 5.81613 102.967 7.21812 102.967 8.10545ZM103.827 13.7667C102.412 13.7667 100.729 14.0861 98.8837 14.7605C97.6478 17.3337 96.4477 20.2087 95.8029 22.3028C96.6268 22.6755 97.5582 22.8707 98.5612 22.8707C102.824 22.8707 107.804 19.4456 107.804 16.4109C107.804 14.725 106.245 13.7667 103.827 13.7667ZM123.858 4.48513C122.935 4.48513 120.027 11.1684 118.251 16.0078C116.67 18.2152 114.434 21.2558 114.266 21.2558C114.23 21.2558 114.212 21.1493 114.212 21.0605C114.212 20.191 116.415 13.0923 117.096 13.0923C117.167 13.0923 117.275 12.9858 117.275 12.8261C117.275 12.1162 115.34 10.9627 114.319 10.9627C113.495 10.9627 110.522 19.4278 110.522 20.7589C110.522 21.8591 112.492 22.8885 114.355 22.8885C114.615 22.8885 115.741 21.5043 116.997 19.7988C116.882 20.2344 116.819 20.5593 116.819 20.7411C116.819 21.8237 119.112 22.8885 119.757 22.8885C119.954 22.8885 120.079 22.7997 120.079 22.5158C120.079 21.8414 120.778 20.3329 121.799 18.6115C122.175 20.8298 124.414 22.8885 126.653 22.8885C126.946 22.8885 128.349 21.0889 129.796 19.0564C130.078 21.2516 132.007 22.8885 133.845 22.8885C136.49 22.8885 139.401 19.5304 141.229 16.9718C141.579 17.592 142.058 18.2567 142.617 18.8777C142.33 19.0197 142.043 19.1616 141.811 19.2681C139.303 20.3862 138.443 21.6107 138.443 22.6755C138.443 24.2904 140.414 25.5505 141.596 25.5505C143.064 25.5505 146.378 23.5451 146.378 21.7527C146.378 20.9718 145.751 19.8715 145.124 18.8245C146.531 18.0179 148.069 17.0857 149.382 16.2633C148.626 18.4438 148.112 20.2077 148.112 20.7411C148.112 21.8414 150.405 22.8885 151.067 22.8885C151.264 22.8885 151.39 22.7997 151.39 22.5158C151.39 21.2735 153.897 17.032 156.28 14.0683C155.366 16.056 154.399 19.2149 154.399 20.9541C154.399 21.8591 156.19 22.8885 158.053 22.8885C158.344 22.8885 159.794 21.0002 161.267 18.9013C161.31 21.1115 162.851 22.8885 164.687 22.8885C167.159 22.8885 169.81 19.6408 170.491 16.3399C171.036 16.3399 171.596 16.2367 172.128 16.0591C170.505 20.4733 168.686 26.2766 168.686 27.0234C168.686 27.8398 170.907 29.295 171.964 29.295C172.269 29.295 172.484 29.153 172.484 28.8868C172.484 28.7271 172.43 28.6561 172.305 28.6561C172.179 28.6561 172.107 28.5319 172.107 28.2835C172.107 27.3606 173.111 24.4857 174.526 21.6107C174.92 22.1431 176.675 22.8885 177.767 22.8885C180.58 22.8885 183.75 17.8839 183.75 13.181C183.75 12.4711 181.744 10.9804 180.848 10.9804C179.415 10.9804 176.979 14.7072 175.242 17.8661C176.12 15.3284 177.302 12.6664 177.66 12.6664C177.732 12.6664 177.803 12.5776 177.803 12.4889C177.803 11.9565 175.6 10.9804 174.472 10.9804C174.179 10.9804 173.459 12.5649 172.623 14.7405C172.041 15.0895 171.35 15.2929 170.634 15.2929C170.652 15.1154 170.652 14.9379 170.652 14.7605C170.652 14.3345 170.616 13.9441 170.544 13.6247C170.58 13.6424 170.634 13.6602 170.688 13.6602C170.867 13.6602 171.118 13.4472 171.118 13.0923C171.118 12.0275 168.861 10.7852 166.98 10.7852C165.309 10.7852 163.12 13.1791 161.999 15.7495C160.42 18.0121 158.099 21.2558 157.928 21.2558C157.892 21.2558 157.874 21.1493 157.874 20.9718C157.874 18.9487 160.238 13.2165 160.937 13.2165C161.044 13.2165 161.169 13.0568 161.169 12.8793C161.169 12.1162 158.626 10.9627 158.053 10.9627C157.014 10.9627 154.13 14.5475 152.268 17.7064C154.023 13.0213 157.139 6.2598 157.928 6.2598C158.035 6.2598 158.125 6.15332 158.125 6.02909C158.125 5.46119 156.083 4.48513 155.008 4.48513C154.061 4.48513 151.673 9.97579 149.973 14.6074C148.51 15.5484 146.398 16.8302 144.533 17.8661C144.175 17.2628 143.906 16.7304 143.906 16.3754C143.906 15.2574 146.683 12.8261 147.829 12.8261C148.187 12.8261 148.581 13.0745 148.581 13.3762C148.581 13.5537 148.706 13.6779 148.85 13.6779C149.047 13.6779 149.28 13.4827 149.28 12.9503C149.28 11.4063 147.256 10.1286 146.038 10.1286C144.103 10.1286 140.611 13.3585 140.611 15.1864C140.611 15.3332 140.634 15.4983 140.679 15.6776C139.021 18.0216 136.266 21.38 134.382 21.38C133.576 21.38 133.075 20.7589 133.075 19.7295C133.075 17.2805 135.869 13.9086 137.821 13.6957C137.499 15.8785 135.206 17.387 134.042 17.387C133.809 17.387 133.684 17.4402 133.684 17.5112C133.684 17.7419 134.74 18.2566 135.457 18.2566C136.854 18.2566 139.594 16.1979 139.594 13.7489C139.594 12.3114 137.767 10.9627 136.173 10.9627C133.892 10.9627 131.18 13.7172 130.168 16.4521C128.635 18.6157 126.719 21.2558 126.563 21.2558C125.703 21.2558 125.005 19.8893 125.005 18.718C127.082 18.718 129.787 14.441 129.787 12.7906C129.787 12.2759 127.602 10.9627 126.903 10.9627C125.757 10.9627 122.909 14.441 121.028 17.5644C122.819 12.8793 125.954 6.18881 126.724 6.18881C126.832 6.18881 126.975 6.04683 126.975 5.92261C126.975 5.46119 124.915 4.48513 123.858 4.48513ZM118.188 10.1641C118.188 10.377 118.152 10.519 117.543 10.519C116.093 10.519 115.072 9.66716 115.072 8.51363C115.072 7.04065 116.684 4.48513 117.669 4.48513C118.349 4.48513 120.266 5.67415 120.266 6.2243C120.266 6.34853 120.141 6.4905 119.997 6.4905C119.352 6.4905 118.188 9.01053 118.188 10.1641ZM122.622 17.316C123.679 15.6655 124.951 13.9796 126.079 12.7728C126.097 12.7728 126.097 12.8261 126.097 12.9148C126.097 14.1038 124.091 17.4402 122.999 17.4402C122.873 17.4402 122.73 17.387 122.622 17.316ZM140.002 23.2256C139.643 23.2256 139.393 23.0659 139.393 22.7642C139.393 22.2673 140.109 21.3977 142.294 20.3507C142.581 20.2087 142.903 20.049 143.244 19.8715C143.405 20.1732 143.494 20.4394 143.494 20.6701C143.494 21.8059 141.04 23.2256 140.002 23.2256ZM164.741 20.049C164.741 18.0791 165.887 15.4348 167.267 14.0151C167.392 14.9734 168.216 15.7898 169.326 16.1447C168.7 18.6292 166.855 21.38 165.493 21.38C165.081 21.38 164.741 21.1315 164.741 20.049ZM169.523 14.6007C169.523 14.7605 169.523 14.9202 169.506 15.0977C168.95 14.8669 168.61 14.4765 168.61 13.9974C168.61 13.6247 168.807 13.394 169.04 13.394C169.309 13.394 169.523 13.7844 169.523 14.6007ZM174.723 21.2025C175.779 19.1794 179.541 12.7906 180.526 12.0807C180.526 16.7126 177.66 21.0428 174.723 21.2025Z" fill="#BAA480"/>
</svg>

<svg width="184" height="30" fill="none" xmlns="http://www.w3.org/2000/svg"><path fill-rule="evenodd" clip-rule="evenodd" d="M10.625 10.492c0 .403 1.839 1.19 2.964 1.19 2.16 0 4.5-2.895 4.5-5.974 0-2.932-2.107-5.003-5.036-5.003C7.178.705 0 9.1 0 15.843c0 4.527 3.25 8.339 7.107 8.339 2.736 0 5.715-1.921 8.312-5.112-.175.662-.274 1.15-.274 1.392 0 1.136 2.285 2.217 2.946 2.217.197 0 .322-.092.322-.385 0-1.283 2.5-5.663 4.874-8.724-.91 2.053-1.875 5.315-1.875 7.111 0 .935 1.786 1.998 3.643 1.998.29 0 1.736-1.95 3.205-4.117.042 2.282 1.578 4.117 3.41 4.117 2.463 0 5.106-3.354 5.785-6.763.543 0 1.101-.106 1.632-.29-1.618 4.559-3.431 10.552-3.431 11.323 0 .843 2.214 2.346 3.268 2.346.303 0 .517-.147.517-.422 0-.164-.053-.238-.178-.238s-.196-.128-.196-.385c0-.953 1-3.922 2.41-6.89.393.55 2.143 1.319 3.232 1.319 2.804 0 5.964-5.168 5.964-10.025 0-.733-2-2.272-2.892-2.272-1.429 0-3.858 3.848-5.59 7.11.875-2.62 2.054-5.37 2.411-5.37.072 0 .143-.09.143-.182 0-.55-2.196-1.558-3.321-1.558-.292 0-1.01 1.636-1.844 3.883a3.77 3.77 0 01-1.982.57c.017-.183.017-.366.017-.55 0-.44-.035-.843-.107-1.173a.33.33 0 00.143.037c.179 0 .429-.22.429-.586 0-1.1-2.25-2.383-4.125-2.383-1.666 0-3.848 2.472-4.966 5.127-1.574 2.336-3.888 5.686-4.059 5.686-.036 0-.053-.11-.053-.293 0-2.09 2.357-8.01 3.053-8.01.107 0 .232-.164.232-.347 0-.788-2.535-1.98-3.107-1.98-1.036 0-3.91 3.702-5.767 6.965 1.75-4.839 4.856-11.821 5.642-11.821.107 0 .197-.11.197-.239 0-.586-2.036-1.594-3.107-1.594-1.01 0-3.664 6.49-5.364 11.44-2.713 4.278-6.425 7.015-9.8 7.015-2.481 0-3.945-1.448-3.945-3.922 0-5.791 8.16-15.284 13.267-15.284 0 3.408-2.964 7.385-5.125 7.385-.321 0-.428.092-.428.184zm23.616 3.024c-1.375 1.466-2.518 4.196-2.518 6.23 0 1.119.34 1.375.75 1.375 1.357 0 3.196-2.84 3.821-5.406-1.107-.367-1.928-1.21-2.053-2.2zm2.232 1.117c.017-.183.017-.348.017-.513 0-.843-.214-1.246-.482-1.246-.232 0-.428.238-.428.623 0 .495.34.898.893 1.136zm5.2 6.305c1.054-2.09 4.804-8.687 5.786-9.42 0 4.783-2.857 9.255-5.785 9.42zm13.213-3.445c1.732-3.263 4.16-7.111 5.59-7.111.892 0 2.892 1.54 2.892 2.272 0 4.857-3.16 10.025-5.964 10.025-1.09 0-2.84-.77-3.232-1.32-1.41 2.97-2.41 5.938-2.41 6.891 0 .257.07.385.196.385.125 0 .178.074.178.238 0 .275-.214.422-.518.422-1.053 0-3.267-1.503-3.267-2.346 0-1.264 4.875-16.567 5.767-16.567 1.125 0 3.322 1.008 3.322 1.558 0 .091-.072.183-.143.183-.357 0-1.536 2.749-2.41 5.37zm-.518 3.445c1.054-2.09 4.804-8.687 5.786-9.42 0 4.783-2.857 9.255-5.786 9.42zm19.177-7.697c0-1.485-1.821-2.878-3.41-2.878-2.858 0-6.393 4.49-6.393 7.79 0 2.547 2.09 4.526 4.071 4.526 1.84 0 3.81-1.689 5.452-3.607-.153.582-.243 1.03-.243 1.261 0 1.246 2.572 2.346 3.233 2.346.196 0 .321-.092.321-.385 0-1.246 2.357-5.425 4.696-8.467a5.076 5.076 0 00-.303 1.668c0 .77 2.232 1.998 3.642 1.998.679 0 4.768-4.216 4.732-4.912-.017-.128-.214-.33-.428-.33-.268 0-.572.257-.786.513-.482.605-3.357 3.446-3.607 3.446-.036 0-.053-.055-.053-.202 0-1.045.875-3.17 1.5-3.17.196 0 .375-.22.375-.44 0-.825-2.536-2.016-3.143-2.016-1.018 0-3.786 3.573-5.66 6.78.91-2.51 2.088-5.02 2.446-5.02.053 0 .125-.093.125-.202 0-.679-2.358-1.558-3.179-1.558-.505 0-1.653 2.65-2.575 5.239-1.67 2.386-4.23 5.5-6.01 5.5-.803 0-1.303-.641-1.303-1.704 0-2.53 2.786-6.011 4.732-6.231-.321 2.254-2.607 3.812-3.767 3.812-.233 0-.358.055-.358.128 0 .238 1.054.77 1.768.77 1.393 0 4.125-2.126 4.125-4.655zm29.422-5.136c0 .302-.179.462-.304.462-.412 0-1.469 1.65-2.633 3.904 5.642-.426 9.457-2.413 9.457-5.11 0-2.22-2.597-3.674-6.681-3.674-6.054 0-11.481 3.194-11.481 6.832 0 1.455.86 2.609 2.06 2.609.465 0 .734.177.734.372 0 .231-.358.462-1.11.462-2.024 0-3.368-1.74-3.368-4.064 0-4.845 5.822-9.193 13.183-9.193 5.553 0 9.35 2.45 9.35 6.07 0 2.661-2.06 4.756-5.553 5.98 2.078.657 3.314 2.147 3.314 4.295 0 4.241-4.782 8.358-9.672 8.358-1.612 0-3.278-.603-4.818-1.686a4.693 4.693 0 00-.108.906c0 .585-.215.763-.537.763-.95 0-2.418-1.509-2.418-2.769 0-2.555 6.161-16.806 7.666-16.806 1.325 0 2.919 1.402 2.919 2.29zm.86 5.662c-1.415 0-3.098.32-4.943.994-1.236 2.573-2.436 5.448-3.081 7.542.824.372 1.755.568 2.758.568 4.263 0 9.243-3.425 9.243-6.46 0-1.686-1.559-2.644-3.977-2.644zm20.031-9.282c-.923 0-3.831 6.683-5.607 11.523-1.581 2.207-3.817 5.248-3.985 5.248-.036 0-.054-.107-.054-.195 0-.87 2.203-7.969 2.884-7.969.071 0 .179-.106.179-.266 0-.71-1.935-1.863-2.956-1.863-.824 0-3.797 8.465-3.797 9.796 0 1.1 1.97 2.13 3.833 2.13.26 0 1.386-1.385 2.642-3.09-.115.435-.178.76-.178.942 0 1.083 2.293 2.148 2.938 2.148.197 0 .322-.09.322-.373 0-.675.699-2.183 1.72-3.904.376 2.218 2.615 4.277 4.854 4.277.293 0 1.696-1.8 3.143-3.833.282 2.196 2.211 3.832 4.049 3.832 2.645 0 5.556-3.358 7.384-5.916.35.62.829 1.285 1.388 1.906-.287.142-.574.284-.806.39-2.508 1.118-3.368 2.343-3.368 3.407 0 1.615 1.971 2.875 3.153 2.875 1.468 0 4.782-2.005 4.782-3.797 0-.781-.627-1.881-1.254-2.928a132.759 132.759 0 004.258-2.562c-.756 2.18-1.27 3.945-1.27 4.478 0 1.1 2.293 2.148 2.955 2.148.197 0 .323-.09.323-.373 0-1.242 2.507-5.484 4.89-8.448-.914 1.988-1.881 5.147-1.881 6.886 0 .905 1.791 1.934 3.654 1.934.291 0 1.741-1.888 3.214-3.987.043 2.21 1.584 3.988 3.42 3.988 2.472 0 5.123-3.248 5.804-6.55.545 0 1.105-.102 1.637-.28-1.623 4.414-3.442 10.218-3.442 10.964 0 .817 2.221 2.272 3.278 2.272.305 0 .52-.142.52-.408 0-.16-.054-.23-.179-.23-.126 0-.198-.125-.198-.373 0-.923 1.004-3.798 2.419-6.673.394.532 2.149 1.277 3.241 1.277 2.813 0 5.983-5.004 5.983-9.707 0-.71-2.006-2.2-2.902-2.2-1.433 0-3.869 3.726-5.606 6.885.878-2.538 2.06-5.2 2.418-5.2.072 0 .143-.088.143-.177 0-.533-2.203-1.509-3.331-1.509-.293 0-1.013 1.585-1.849 3.76a3.886 3.886 0 01-1.989.553c.018-.178.018-.355.018-.532a5.3 5.3 0 00-.108-1.136c.036.017.09.035.144.035.179 0 .43-.213.43-.568 0-1.065-2.257-2.307-4.138-2.307-1.671 0-3.86 2.394-4.981 4.964-1.579 2.263-3.9 5.507-4.071 5.507-.036 0-.054-.107-.054-.284 0-2.023 2.364-7.756 3.063-7.756.107 0 .232-.16.232-.337 0-.763-2.543-1.916-3.116-1.916-1.039 0-3.923 3.585-5.785 6.743 1.755-4.685 4.871-11.446 5.66-11.446.107 0 .197-.107.197-.23 0-.569-2.042-1.545-3.117-1.545-.947 0-3.335 5.49-5.035 10.122a106.88 106.88 0 01-5.44 3.26c-.358-.604-.627-1.137-.627-1.492 0-1.118 2.777-3.549 3.923-3.549.358 0 .752.248.752.55 0 .178.125.302.269.302.197 0 .43-.195.43-.728 0-1.544-2.024-2.821-3.242-2.821-1.935 0-5.427 3.23-5.427 5.057 0 .147.023.312.068.492-1.658 2.344-4.413 5.702-6.297 5.702-.806 0-1.307-.621-1.307-1.65 0-2.45 2.794-5.821 4.746-6.034-.322 2.183-2.615 3.691-3.779 3.691-.233 0-.358.053-.358.124 0 .23 1.056.746 1.773.746 1.397 0 4.137-2.06 4.137-4.508 0-1.438-1.827-2.786-3.421-2.786-2.281 0-4.993 2.754-6.005 5.49-1.533 2.163-3.449 4.803-3.605 4.803-.86 0-1.558-1.367-1.558-2.538 2.077 0 4.782-4.277 4.782-5.927 0-.515-2.185-1.828-2.884-1.828-1.146 0-3.994 3.478-5.875 6.601 1.791-4.685 4.926-11.375 5.696-11.375.108 0 .251-.142.251-.266 0-.462-2.06-1.438-3.117-1.438zm-5.67 5.68c0 .212-.036.354-.645.354-1.45 0-2.471-.852-2.471-2.005 0-1.473 1.612-4.029 2.597-4.029.68 0 2.597 1.19 2.597 1.74 0 .124-.125.266-.269.266-.645 0-1.809 2.52-1.809 3.673zm4.434 7.151c1.057-1.65 2.329-3.336 3.457-4.543.018 0 .018.053.018.142 0 1.189-2.006 4.525-3.098 4.525a.732.732 0 01-.377-.124zm17.38 5.91c-.359 0-.609-.16-.609-.462 0-.497.716-1.366 2.901-2.413.287-.142.609-.302.95-.48.161.302.25.568.25.8 0 1.135-2.454 2.555-3.492 2.555zm24.739-3.177c0-1.97 1.146-4.614 2.526-6.034.125.958.949 1.775 2.059 2.13-.626 2.484-2.471 5.235-3.833 5.235-.412 0-.752-.248-.752-1.331zm4.782-5.448c0 .16 0 .32-.017.497-.556-.231-.896-.622-.896-1.1 0-.373.197-.604.43-.604.269 0 .483.39.483 1.207zm5.2 6.601c1.056-2.023 4.818-8.411 5.803-9.121 0 4.632-2.866 8.962-5.803 9.122z" fill="#BAA480"/></svg>
